; G-Code generated by Simplify3D(R) Version 4.0.1
; Jun 11, 2019 at 8:43:01 PM
; Settings Summary
;   processName,Process1
;   applyToModels,Carrete_solenoide_rasteiro 11mm
;   profileName,Anet A8 modificado (modified)
;   profileVersion,2019-04-11 11:15:14
;   baseProfile,Anet A8 (modified)
;   printMaterial,PLA
;   printQuality,Medium
;   printExtruders,
;   extruderName,Primary Extruder
;   extruderToolheadNumber,0
;   extruderDiameter,0.5
;   extruderAutoWidth,1
;   extruderWidth,0.6
;   extrusionMultiplier,0.9
;   extruderUseRetract,1
;   extruderRetractionDistance,5.2
;   extruderExtraRestartDistance,0
;   extruderRetractionZLift,0.4
;   extruderRetractionSpeed,1800
;   extruderUseCoasting,0
;   extruderCoastingDistance,0.2
;   extruderUseWipe,0
;   extruderWipeDistance,5
;   primaryExtruder,0
;   layerHeight,0.125
;   topSolidLayers,3
;   bottomSolidLayers,3
;   perimeterOutlines,3
;   printPerimetersInsideOut,1
;   startPointOption,2
;   startPointOriginX,0
;   startPointOriginY,0
;   sequentialIslands,0
;   spiralVaseMode,0
;   firstLayerHeightPercentage,90
;   firstLayerWidthPercentage,100
;   firstLayerUnderspeed,0.5
;   useRaft,0
;   raftExtruder,0
;   raftTopLayers,2
;   raftBaseLayers,2
;   raftOffset,2.6
;   raftSeparationDistance,0.24
;   raftTopInfill,100
;   aboveRaftSpeedMultiplier,0.3
;   useSkirt,1
;   skirtExtruder,0
;   skirtLayers,1
;   skirtOutlines,3
;   skirtOffset,4
;   usePrimePillar,0
;   primePillarExtruder,999
;   primePillarWidth,12
;   primePillarLocation,7
;   primePillarSpeedMultiplier,1
;   useOozeShield,0
;   oozeShieldExtruder,999
;   oozeShieldOffset,2
;   oozeShieldOutlines,1
;   oozeShieldSidewallShape,1
;   oozeShieldSidewallAngle,30
;   oozeShieldSpeedMultiplier,1
;   infillExtruder,0
;   internalInfillPattern,Rectilinear
;   externalInfillPattern,Rectilinear
;   infillPercentage,50
;   outlineOverlapPercentage,15
;   infillExtrusionWidthPercentage,100
;   minInfillLength,3
;   infillLayerInterval,1
;   internalInfillAngles,45,-45
;   overlapInternalInfillAngles,0
;   externalInfillAngles,45,-45
;   generateSupport,1
;   supportExtruder,0
;   supportInfillPercentage,20
;   supportExtraInflation,0
;   supportBaseLayers,0
;   denseSupportExtruder,0
;   denseSupportLayers,1
;   denseSupportInfillPercentage,70
;   supportLayerInterval,1
;   supportHorizontalPartOffset,1
;   supportUpperSeparationLayers,2
;   supportLowerSeparationLayers,2
;   supportType,0
;   supportGridSpacing,1
;   maxOverhangAngle,65
;   supportAngles,0
;   temperatureName,Primary Extruder,Heated Bed
;   temperatureNumber,0,0
;   temperatureSetpointCount,1,1
;   temperatureSetpointLayers,1,1
;   temperatureSetpointTemperatures,210,55
;   temperatureStabilizeAtStartup,1,1
;   temperatureHeatedBed,0,1
;   temperatureRelayBetweenLayers,0,0
;   temperatureRelayBetweenLoops,0,0
;   fanLayers,1
;   fanSpeeds,0
;   blipFanToFullPower,0
;   adjustSpeedForCooling,1
;   minSpeedLayerTime,15
;   minCoolingSpeedSlowdown,20
;   increaseFanForCooling,1
;   minFanLayerTime,30
;   maxCoolingFanSpeed,50
;   increaseFanForBridging,0
;   bridgingFanSpeed,100
;   use5D,1
;   relativeEdistances,0
;   allowEaxisZeroing,1
;   independentExtruderAxes,0
;   includeM10123,0
;   stickySupport,1
;   applyToolheadOffsets,0
;   gcodeXoffset,0
;   gcodeYoffset,0
;   gcodeZoffset,0
;   overrideMachineDefinition,1
;   machineTypeOverride,0
;   strokeXoverride,220
;   strokeYoverride,220
;   strokeZoverride,240
;   originOffsetXoverride,0
;   originOffsetYoverride,0
;   originOffsetZoverride,0
;   homeXdirOverride,-1
;   homeYdirOverride,-1
;   homeZdirOverride,-1
;   flipXoverride,1
;   flipYoverride,-1
;   flipZoverride,1
;   toolheadOffsets,0,0|0,0|0,0|0,0|0,0|0,0
;   overrideFirmwareConfiguration,1
;   firmwareTypeOverride,RepRap (Marlin/Repetier/Sprinter)
;   GPXconfigOverride,r2
;   baudRateOverride,115200
;   overridePrinterModels,1
;   printerModelsOverride
;   startingGcode,G28 ; home all axes,G1 X0 Y20 Z0.2 F3000 ; get ready to prime,G92 E0 ; reset extrusion distance,G1 X200 E20 F600 ; prime nozzle
;   layerChangeGcode,
;   retractionGcode,
;   toolChangeGcode,
;   endingGcode,M104 S0 ; turn off extruder,M140 S0 ; turn off bed,G1 X0 Y200 F1000 ; prepare for part removal,M84 ; disable motors
;   exportFileFormat,gcode
;   celebration,0
;   celebrationSong,Random Song
;   postProcessing,
;   defaultSpeed,3200
;   outlineUnderspeed,0.65
;   solidInfillUnderspeed,1.3
;   supportUnderspeed,0.8
;   rapidXYspeed,4800
;   rapidZspeed,1000
;   minBridgingArea,50
;   bridgingExtraInflation,0
;   bridgingExtrusionMultiplier,1
;   bridgingSpeedMultiplier,1
;   useFixedBridgingAngle,0
;   fixedBridgingAngle,0
;   applyBridgingToPerimeters,0
;   filamentDiameters,1.75|1.75|1.75|1.75|1.75|1.75
;   filamentPricesPerKg,130|46|46|46|46|46
;   filamentDensities,1.25|1.25|1.25|1.25|1.25|1.25
;   useMinPrintHeight,0
;   minPrintHeight,14.78
;   useMaxPrintHeight,0
;   maxPrintHeight,53.85
;   useDiaphragm,0
;   diaphragmLayerInterval,20
;   robustSlicing,1
;   mergeAllIntoSolid,0
;   onlyRetractWhenCrossingOutline,1
;   retractBetweenLayers,1
;   useRetractionMinTravel,0
;   retractionMinTravel,3
;   retractWhileWiping,0
;   onlyWipeOutlines,1
;   avoidCrossingOutline,0
;   maxMovementDetourFactor,3
;   toolChangeRetractionDistance,12
;   toolChangeExtraRestartDistance,-0.5
;   toolChangeRetractionSpeed,600
;   externalThinWallType,0
;   internalThinWallType,2
;   thinWallAllowedOverlapPercentage,10
;   singleExtrusionMinLength,1
;   singleExtrusionMinPrintingWidthPercentage,50
;   singleExtrusionMaxPrintingWidthPercentage,200
;   singleExtrusionEndpointExtension,0.2
;   horizontalSizeCompensation,0
G90
M82
M106 S0
M140 S55
M190 S55
M104 S210 T0
M109 S210 T0
G28 ; home all axes
G1 X0 Y20 Z0.2 F3000 ; get ready to prime
G92 E0 ; reset extrusion distance
G1 X200 E20 F600 ; prime nozzle
G92 E0
G1 E-5.2000 F1800
G1 Z0.512 F1000
; process Process1
; layer 1, Z = 0.113
T0
; tool H0.125 W0.600
; skirt
G1 X94.373 Y95.542 F4800
G1 Z0.112 F1000
G1 E0.0000 F540
G92 E0
G1 X94.405 Y95.509 E0.0013 F1600
G1 X96.012 Y93.951 E0.0641
G1 X96.046 Y93.920 E0.0654
G1 X96.268 Y93.729 E0.0736
G1 X96.304 Y93.700 E0.0749
G1 X98.090 Y92.352 E0.1377
G1 X98.128 Y92.325 E0.1390
G1 X98.372 Y92.163 E0.1472
G1 X98.411 Y92.139 E0.1485
G1 X100.349 Y91.020 E0.2113
G1 X100.390 Y90.998 E0.2126
G1 X100.652 Y90.868 E0.2208
G1 X100.694 Y90.848 E0.2221
G1 X102.755 Y89.976 E0.2849
G1 X102.798 Y89.959 E0.2862
G1 X103.074 Y89.862 E0.2945
G1 X103.118 Y89.848 E0.2957
G1 X105.270 Y89.236 E0.3586
G1 X105.315 Y89.224 E0.3598
G1 X105.601 Y89.162 E0.3681
G1 X105.647 Y89.153 E0.3694
G1 X107.858 Y88.810 E0.4322
G1 X107.904 Y88.804 E0.4335
G1 X108.195 Y88.777 E0.4417
G1 X108.241 Y88.775 E0.4430
G1 X110.478 Y88.706 E0.5058
G1 X110.525 Y88.706 E0.5071
G1 X110.817 Y88.715 E0.5153
G1 X110.863 Y88.717 E0.5166
G1 X113.092 Y88.924 E0.5794
G1 X113.138 Y88.930 E0.5807
G1 X113.427 Y88.975 E0.5889
G1 X113.472 Y88.983 E0.5902
G1 X115.658 Y89.462 E0.6530
G1 X115.703 Y89.473 E0.6543
G1 X115.985 Y89.553 E0.6625
G1 X116.029 Y89.567 E0.6638
G1 X118.140 Y90.311 E0.7266
G1 X118.183 Y90.328 E0.7279
G1 X118.452 Y90.442 E0.7361
G1 X118.494 Y90.461 E0.7374
G1 X120.498 Y91.459 E0.8002
G1 X120.538 Y91.480 E0.8015
G1 X120.792 Y91.627 E0.8097
G1 X120.831 Y91.651 E0.8110
G1 X122.697 Y92.887 E0.8738
G1 X122.734 Y92.914 E0.8751
G1 X122.968 Y93.090 E0.8834
G1 X123.004 Y93.119 E0.8846
G1 X124.703 Y94.575 E0.9475
G1 X124.738 Y94.607 E0.9487
G1 X124.948 Y94.810 E0.9570
G1 X124.980 Y94.844 E0.9583
G1 X126.488 Y96.497 E1.0211
G1 X126.518 Y96.532 E1.0224
G1 X126.701 Y96.761 E1.0306
G1 X126.729 Y96.797 E1.0319
G1 X128.022 Y98.624 E1.0947
G1 X128.048 Y98.663 E1.0960
G1 X128.202 Y98.911 E1.1042
G1 X128.225 Y98.951 E1.1055
G1 X129.284 Y100.923 E1.1683
G1 X129.304 Y100.965 E1.1696
G1 X129.426 Y101.230 E1.1778
G1 X129.444 Y101.273 E1.1791
G1 X130.253 Y103.360 E1.2419
G1 X130.268 Y103.403 E1.2432
G1 X130.357 Y103.682 E1.2514
G1 X130.370 Y103.727 E1.2527
G1 X130.916 Y105.897 E1.3155
G1 X130.925 Y105.942 E1.3168
G1 X130.979 Y106.230 E1.3250
G1 X130.986 Y106.276 E1.3263
G1 X131.261 Y108.497 E1.3891
G1 X131.266 Y108.543 E1.3904
G1 X131.284 Y108.835 E1.3986
G1 X131.285 Y108.881 E1.3999
G1 X131.285 Y111.119 E1.4627
G1 X131.284 Y111.165 E1.4640
G1 X131.266 Y111.457 E1.4723
G1 X131.261 Y111.503 E1.4735
G1 X130.986 Y113.724 E1.5364
G1 X130.979 Y113.770 E1.5376
G1 X130.925 Y114.058 E1.5459
G1 X130.916 Y114.103 E1.5472
G1 X130.370 Y116.273 E1.6100
G1 X130.357 Y116.318 E1.6113
G1 X130.268 Y116.597 E1.6195
G1 X130.253 Y116.640 E1.6208
G1 X129.444 Y118.727 E1.6836
G1 X129.426 Y118.770 E1.6849
G1 X129.304 Y119.035 E1.6931
G1 X129.284 Y119.077 E1.6944
G1 X128.225 Y121.049 E1.7572
G1 X128.202 Y121.089 E1.7585
G1 X128.048 Y121.337 E1.7667
G1 X128.022 Y121.376 E1.7680
G1 X126.729 Y123.203 E1.8308
G1 X126.701 Y123.239 E1.8321
G1 X126.518 Y123.467 E1.8403
G1 X126.488 Y123.503 E1.8416
G1 X124.980 Y125.156 E1.9044
G1 X124.948 Y125.190 E1.9057
G1 X124.738 Y125.393 E1.9139
G1 X124.703 Y125.425 E1.9152
G1 X123.004 Y126.881 E1.9780
G1 X122.968 Y126.910 E1.9793
G1 X122.734 Y127.086 E1.9875
G1 X122.697 Y127.113 E1.9888
G1 X120.831 Y128.349 E2.0516
G1 X120.792 Y128.373 E2.0529
G1 X120.538 Y128.519 E2.0611
G1 X120.498 Y128.541 E2.0624
G1 X118.494 Y129.539 E2.1253
G1 X118.452 Y129.558 E2.1265
G1 X118.183 Y129.672 E2.1348
G1 X118.140 Y129.689 E2.1361
G1 X116.029 Y130.433 E2.1989
G1 X115.985 Y130.447 E2.2002
G1 X115.703 Y130.527 E2.2084
G1 X115.658 Y130.538 E2.2097
G1 X113.472 Y131.017 E2.2725
G1 X113.427 Y131.025 E2.2738
G1 X113.138 Y131.070 E2.2820
G1 X113.092 Y131.076 E2.2833
G1 X110.863 Y131.283 E2.3461
G1 X110.817 Y131.285 E2.3474
G1 X110.525 Y131.294 E2.3556
G1 X110.478 Y131.294 E2.3569
G1 X108.241 Y131.225 E2.4197
G1 X108.195 Y131.223 E2.4210
G1 X107.904 Y131.196 E2.4292
G1 X107.858 Y131.190 E2.4305
G1 X105.647 Y130.847 E2.4933
G1 X105.601 Y130.838 E2.4946
G1 X105.315 Y130.776 E2.5028
G1 X105.270 Y130.764 E2.5041
G1 X103.118 Y130.152 E2.5669
G1 X103.074 Y130.138 E2.5682
G1 X102.798 Y130.041 E2.5764
G1 X102.755 Y130.024 E2.5777
G1 X100.694 Y129.152 E2.6405
G1 X100.652 Y129.132 E2.6418
G1 X100.390 Y129.002 E2.6501
G1 X100.349 Y128.980 E2.6513
G1 X98.411 Y127.861 E2.7142
G1 X98.372 Y127.837 E2.7154
G1 X98.128 Y127.675 E2.7237
G1 X98.090 Y127.648 E2.7250
G1 X96.304 Y126.299 E2.7878
G1 X96.268 Y126.271 E2.7891
G1 X96.046 Y126.080 E2.7973
G1 X96.012 Y126.049 E2.7986
G1 X94.405 Y124.491 E2.8614
G1 X94.373 Y124.458 E2.8627
G1 X94.175 Y124.242 E2.8709
G1 X94.145 Y124.206 E2.8722
G1 X92.742 Y122.463 E2.9350
G1 X92.715 Y122.426 E2.9363
G1 X92.545 Y122.187 E2.9445
G1 X92.520 Y122.149 E2.9458
G1 X91.342 Y120.246 E3.0086
G1 X91.319 Y120.206 E3.0099
G1 X91.180 Y119.948 E3.0181
G1 X91.160 Y119.907 E3.0194
G1 X90.224 Y117.873 E3.0822
G1 X90.206 Y117.831 E3.0835
G1 X90.100 Y117.558 E3.0917
G1 X90.085 Y117.514 E3.0930
G1 X89.407 Y115.382 E3.1558
G1 X89.394 Y115.337 E3.1571
G1 X89.323 Y115.053 E3.1653
G1 X89.313 Y115.008 E3.1666
G1 X88.901 Y112.808 E3.2294
G1 X88.894 Y112.763 E3.2307
G1 X88.858 Y112.472 E3.2390
G1 X88.854 Y112.426 E3.2402
G1 X88.716 Y110.192 E3.3031
G1 X88.715 Y110.146 E3.3043
G1 X88.715 Y109.854 E3.3126
G1 X88.716 Y109.807 E3.3139
G1 X88.854 Y107.574 E3.3767
G1 X88.858 Y107.528 E3.3780
G1 X88.894 Y107.237 E3.3862
G1 X88.901 Y107.192 E3.3875
G1 X89.313 Y104.992 E3.4503
G1 X89.323 Y104.947 E3.4516
G1 X89.394 Y104.663 E3.4598
G1 X89.407 Y104.618 E3.4611
G1 X90.085 Y102.486 E3.5239
G1 X90.100 Y102.442 E3.5252
G1 X90.206 Y102.169 E3.5334
G1 X90.224 Y102.127 E3.5347
G1 X91.160 Y100.093 E3.5975
G1 X91.180 Y100.052 E3.5988
G1 X91.319 Y99.794 E3.6070
G1 X91.342 Y99.754 E3.6083
G1 X92.520 Y97.851 E3.6711
G1 X92.545 Y97.813 E3.6724
G1 X92.715 Y97.574 E3.6806
G1 X92.742 Y97.537 E3.6819
G1 X94.145 Y95.794 E3.7447
G1 X94.175 Y95.758 E3.7460
G1 X94.373 Y95.542 E3.7542
G1 X94.810 Y95.953 F4800
G92 E0
G1 X94.829 Y95.933 E0.0008 F1600
G1 X96.423 Y94.388 E0.0631
G1 X96.443 Y94.370 E0.0638
G1 X96.651 Y94.191 E0.0715
G1 X96.673 Y94.174 E0.0723
G1 X98.444 Y92.836 E0.1346
G1 X98.467 Y92.820 E0.1354
G1 X98.695 Y92.669 E0.1431
G1 X98.719 Y92.654 E0.1439
G1 X100.641 Y91.544 E0.2061
G1 X100.665 Y91.531 E0.2069
G1 X100.911 Y91.409 E0.2146
G1 X100.936 Y91.397 E0.2154
G1 X102.980 Y90.532 E0.2777
G1 X103.006 Y90.522 E0.2785
G1 X103.265 Y90.431 E0.2862
G1 X103.291 Y90.423 E0.2869
G1 X105.426 Y89.815 E0.3492
G1 X105.453 Y89.809 E0.3500
G1 X105.720 Y89.750 E0.3577
G1 X105.748 Y89.745 E0.3585
G1 X107.941 Y89.404 E0.4208
G1 X107.968 Y89.401 E0.4215
G1 X108.242 Y89.376 E0.4292
G1 X108.269 Y89.374 E0.4300
G1 X110.488 Y89.306 E0.4923
G1 X110.515 Y89.306 E0.4931
G1 X110.789 Y89.314 E0.5008
G1 X110.817 Y89.316 E0.5015
G1 X113.027 Y89.521 E0.5638
G1 X113.055 Y89.524 E0.5646
G1 X113.326 Y89.566 E0.5723
G1 X113.353 Y89.571 E0.5731
G1 X115.521 Y90.046 E0.6354
G1 X115.548 Y90.053 E0.6361
G1 X115.812 Y90.128 E0.6438
G1 X115.838 Y90.136 E0.6446
G1 X117.931 Y90.874 E0.7069
G1 X117.957 Y90.884 E0.7077
G1 X118.210 Y90.991 E0.7154
G1 X118.235 Y91.002 E0.7162
G1 X120.222 Y91.992 E0.7784
G1 X120.246 Y92.005 E0.7792
G1 X120.484 Y92.142 E0.7869
G1 X120.507 Y92.156 E0.7877
G1 X122.357 Y93.382 E0.8500
G1 X122.380 Y93.398 E0.8508
G1 X122.599 Y93.564 E0.8585
G1 X122.621 Y93.581 E0.8592
G1 X124.306 Y95.025 E0.9215
G1 X124.327 Y95.044 E0.9223
G1 X124.523 Y95.235 E0.9300
G1 X124.543 Y95.255 E0.9308
G1 X126.038 Y96.895 E0.9931
G1 X126.056 Y96.916 E0.9938
G1 X126.228 Y97.129 E1.0015
G1 X126.245 Y97.152 E1.0023
G1 X127.527 Y98.963 E1.0646
G1 X127.542 Y98.986 E1.0654
G1 X127.687 Y99.219 E1.0731
G1 X127.701 Y99.243 E1.0738
G1 X128.751 Y101.199 E1.1361
G1 X128.763 Y101.224 E1.1369
G1 X128.877 Y101.473 E1.1446
G1 X128.888 Y101.498 E1.1454
G1 X129.690 Y103.568 E1.2077
G1 X129.699 Y103.594 E1.2084
G1 X129.782 Y103.855 E1.2161
G1 X129.790 Y103.882 E1.2169
G1 X130.331 Y106.034 E1.2792
G1 X130.337 Y106.062 E1.2800
G1 X130.388 Y106.331 E1.2877
G1 X130.392 Y106.359 E1.2885
G1 X130.665 Y108.561 E1.3507
G1 X130.667 Y108.589 E1.3515
G1 X130.684 Y108.862 E1.3592
G1 X130.685 Y108.890 E1.3600
G1 X130.685 Y111.110 E1.4223
G1 X130.684 Y111.137 E1.4231
G1 X130.667 Y111.411 E1.4308
G1 X130.665 Y111.439 E1.4315
G1 X130.392 Y113.641 E1.4938
G1 X130.388 Y113.669 E1.4946
G1 X130.337 Y113.938 E1.5023
G1 X130.331 Y113.965 E1.5031
G1 X129.790 Y116.118 E1.5654
G1 X129.782 Y116.145 E1.5661
G1 X129.699 Y116.406 E1.5738
G1 X129.690 Y116.432 E1.5746
G1 X128.888 Y118.502 E1.6369
G1 X128.878 Y118.527 E1.6377
G1 X128.763 Y118.776 E1.6454
G1 X128.751 Y118.801 E1.6461
G1 X127.701 Y120.757 E1.7084
G1 X127.687 Y120.781 E1.7092
G1 X127.542 Y121.014 E1.7169
G1 X127.527 Y121.037 E1.7177
G1 X126.245 Y122.848 E1.7800
G1 X126.228 Y122.871 E1.7808
G1 X126.056 Y123.084 E1.7884
G1 X126.038 Y123.105 E1.7892
G1 X124.543 Y124.745 E1.8515
G1 X124.523 Y124.765 E1.8523
G1 X124.327 Y124.956 E1.8600
G1 X124.306 Y124.975 E1.8608
G1 X122.621 Y126.419 E1.9231
G1 X122.599 Y126.436 E1.9238
G1 X122.380 Y126.602 E1.9315
G1 X122.357 Y126.618 E1.9323
G1 X120.507 Y127.844 E1.9946
G1 X120.484 Y127.858 E1.9954
G1 X120.246 Y127.995 E2.0031
G1 X120.222 Y128.008 E2.0038
G1 X118.235 Y128.998 E2.0661
G1 X118.210 Y129.009 E2.0669
G1 X117.957 Y129.116 E2.0746
G1 X117.931 Y129.126 E2.0754
G1 X115.838 Y129.864 E2.1377
G1 X115.812 Y129.872 E2.1384
G1 X115.548 Y129.947 E2.1461
G1 X115.521 Y129.954 E2.1469
G1 X113.353 Y130.429 E2.2092
G1 X113.326 Y130.434 E2.2100
G1 X113.055 Y130.476 E2.2177
G1 X113.027 Y130.479 E2.2185
G1 X110.817 Y130.684 E2.2807
G1 X110.789 Y130.686 E2.2815
G1 X110.515 Y130.694 E2.2892
G1 X110.488 Y130.694 E2.2900
G1 X108.269 Y130.626 E2.3523
G1 X108.242 Y130.624 E2.3531
G1 X107.968 Y130.599 E2.3608
G1 X107.941 Y130.596 E2.3615
G1 X105.748 Y130.255 E2.4238
G1 X105.720 Y130.250 E2.4246
G1 X105.453 Y130.191 E2.4323
G1 X105.426 Y130.185 E2.4331
G1 X103.291 Y129.577 E2.4954
G1 X103.265 Y129.569 E2.4961
G1 X103.006 Y129.478 E2.5038
G1 X102.980 Y129.468 E2.5046
G1 X100.936 Y128.603 E2.5669
G1 X100.911 Y128.591 E2.5677
G1 X100.665 Y128.469 E2.5754
G1 X100.641 Y128.456 E2.5761
