;Generated with Cura_SteamEngine 15.01
; Default start code
G28 ; Home extruder
G1 Z15 F900
M107 ; Turn off fan
G90 ; Absolute positioning
M82 ; Extruder in absolute mode
M190 S45
; Activate all used extruder
M104 T0 S200
G92 E0 ; Reset extruder position
; Wait for all used extruders to reach temperature
M109 T0 S200
;Layer count: 230
;LAYER:0
M107
G0 F9000 X88.153 Y86.961 Z0.300
G0 X87.908 Y87.212
;TYPE:SKIRT
G1 F1800 X88.153 Y86.961 E0.01750
G1 X89.911 Y85.559 E0.12968
G1 X91.546 Y84.568 E0.22507
G1 X91.847 Y84.386 E0.24261
G1 X93.583 Y83.618 E0.33732
G1 X93.900 Y83.477 E0.35463
G1 X95.733 Y82.933 E0.45002
G1 X96.069 Y82.834 E0.46750
G1 X97.948 Y82.530 E0.56246
G1 X98.284 Y82.474 E0.57945
G1 X100.194 Y82.413 E0.67479
G1 X100.547 Y82.401 E0.69241
G1 X102.451 Y82.584 E0.78784
G1 X102.801 Y82.619 E0.80539
G1 X104.657 Y83.042 E0.90036
G1 X105.000 Y83.121 E0.91792
G1 X106.788 Y83.780 E1.01299
G1 X107.116 Y83.902 E1.03045
G1 X108.802 Y84.780 E1.12529
G1 X109.116 Y84.944 E1.14296
G1 X110.676 Y86.033 E1.23788
G1 X110.675 Y86.034 E1.23795
G1 X110.963 Y86.233 E1.25541
G1 X112.375 Y87.515 E1.35056
G1 X112.634 Y87.752 E1.36808
G1 X113.870 Y89.203 E1.46317
G1 X114.098 Y89.471 E1.48073
G1 X115.132 Y91.059 E1.57527
G1 X115.326 Y91.356 E1.59296
G1 X116.154 Y93.076 E1.68820
G1 X116.306 Y93.393 E1.70574
G1 X116.906 Y95.200 E1.80073
G1 X116.905 Y95.200 E1.80078
G1 X117.016 Y95.531 E1.81820
G1 X117.448 Y97.748 E1.93089
G1 X117.569 Y99.641 E2.02552
G1 X117.593 Y99.995 E2.04322
G1 X117.470 Y101.905 E2.13871
G1 X117.447 Y102.256 E2.15626
G1 X117.016 Y104.466 E2.26859
G1 X116.416 Y106.275 E2.36368
G1 X116.305 Y106.608 E2.38119
G1 X115.480 Y108.323 E2.47614
G1 X115.327 Y108.640 E2.49370
G1 X114.286 Y110.239 E2.58889
G1 X114.094 Y110.533 E2.60641
G1 X112.861 Y111.981 E2.70129
G1 X112.636 Y112.246 E2.71864
G1 X111.223 Y113.529 E2.81385
G1 X110.965 Y113.764 E2.83127
G1 X109.402 Y114.856 E2.92639
G1 X109.111 Y115.058 E2.94406
G1 X107.422 Y115.938 E3.03908
G1 X107.115 Y116.099 E3.05637
G1 X105.326 Y116.757 E3.15147
G1 X105.001 Y116.878 E3.16877
G1 X103.137 Y117.303 E3.26416
G1 X102.799 Y117.381 E3.28146
G1 X100.898 Y117.564 E3.37674
G1 X100.898 Y117.563 E3.37679
G1 X100.557 Y117.598 E3.39389
G1 X98.644 Y117.537 E3.48938
G1 X98.292 Y117.525 E3.50695
G1 X96.403 Y117.220 E3.60242
G1 X96.057 Y117.162 E3.61992
G1 X94.241 Y116.623 E3.71443
G1 X93.906 Y116.524 E3.73186
G1 X92.159 Y115.751 E3.82716
G1 X91.838 Y115.608 E3.84470
G1 X90.212 Y114.623 E3.93954
G1 X89.915 Y114.444 E3.95684
G1 X88.147 Y113.033 E4.06969
G1 X86.823 Y111.665 E4.16468
G1 X86.582 Y111.419 E4.18186
G1 X85.438 Y109.885 E4.27733
G1 X85.231 Y109.609 E4.29454
G1 X84.293 Y107.944 E4.38988
G1 X84.121 Y107.638 E4.40739
G1 X83.274 Y105.548 E4.51990
G1 X82.791 Y103.704 E4.61500
G1 X82.703 Y103.373 E4.63209
G1 X82.459 Y101.473 E4.72766
G1 X82.414 Y101.137 E4.74457
G1 X82.414 Y98.873 E4.85752
G1 X82.658 Y96.973 E4.95309
G1 X82.705 Y96.625 E4.97061
G1 X83.187 Y94.783 E5.06560
G1 X83.278 Y94.443 E5.08316
G1 X84.122 Y92.359 E5.19534
G1 X85.056 Y90.701 E5.29028
G1 X85.227 Y90.396 E5.30772
G1 X86.370 Y88.864 E5.40308
G1 X86.581 Y88.583 E5.42062
G1 X87.908 Y87.212 E5.51581
G0 F9000 X88.195 Y87.491
G1 F1800 X88.422 Y87.258 E5.53204
G1 X90.140 Y85.887 E5.64169
G1 X91.752 Y84.910 E5.73574
G1 X92.032 Y84.742 E5.75203
G1 X93.745 Y83.984 E5.84548
G1 X94.039 Y83.853 E5.86154
G1 X95.846 Y83.317 E5.95557
G1 X96.158 Y83.225 E5.97180
G1 X97.992 Y82.928 E6.06449
G1 X98.324 Y82.872 E6.08129
G1 X100.207 Y82.813 E6.17528
G1 X100.534 Y82.802 E6.19160
G1 X102.412 Y82.982 E6.28573
G1 X102.737 Y83.015 E6.30202
G1 X104.567 Y83.432 E6.39566
G1 X104.885 Y83.505 E6.41194
G1 X106.649 Y84.155 E6.50573
G1 X106.954 Y84.268 E6.52196
G1 X108.617 Y85.134 E6.61550
G1 X108.908 Y85.286 E6.63188
G1 X110.447 Y86.361 E6.72554
G1 X110.713 Y86.546 E6.74170
G1 X112.106 Y87.811 E6.83558
G1 X112.346 Y88.030 E6.85179
G1 X113.566 Y89.462 E6.94564
G1 X113.776 Y89.711 E6.96189
G1 X114.797 Y91.278 E7.05520
G1 X114.977 Y91.553 E7.07160
G1 X115.935 Y93.543 E7.18179
G1 X116.525 Y95.322 E7.27530
G1 X116.628 Y95.633 E7.29164
G1 X117.050 Y97.799 E7.40173
G1 X117.169 Y99.667 E7.49512
G1 X117.170 Y99.667 E7.49517
G1 X117.192 Y99.996 E7.51162
G1 X117.071 Y101.879 E7.60576
G1 X117.050 Y102.204 E7.62200
G1 X116.629 Y104.364 E7.73179
G1 X116.036 Y106.149 E7.82563
G1 X115.934 Y106.457 E7.84182
G1 X114.978 Y108.443 E7.95179
G1 X113.951 Y110.020 E8.04568
G1 X113.773 Y110.293 E8.06193
G1 X112.556 Y111.722 E8.15558
G1 X112.348 Y111.968 E8.17165
G1 X110.957 Y113.231 E8.26539
G1 X110.715 Y113.451 E8.28170
G1 X109.173 Y114.527 E8.37551
G1 X108.904 Y114.715 E8.39188
G1 X107.237 Y115.583 E8.48565
G1 X106.952 Y115.732 E8.50170
G1 X105.197 Y116.379 E8.59501
G1 X104.886 Y116.494 E8.61156
G1 X103.048 Y116.913 E8.70561
G1 X102.735 Y116.985 E8.72163
G1 X100.872 Y117.164 E8.81500
G1 X100.543 Y117.197 E8.83150
G1 X98.657 Y117.137 E8.92564
G1 X98.331 Y117.126 E8.94191
G1 X96.469 Y116.825 E9.03602
G1 X96.147 Y116.771 E9.05230
G1 X94.355 Y116.240 E9.14555
G1 X94.044 Y116.148 E9.16173
G1 X92.322 Y115.386 E9.25568
G1 X92.024 Y115.253 E9.27196
G1 X90.419 Y114.281 E9.36557
G1 X90.144 Y114.115 E9.38160
G1 X88.417 Y112.736 E9.49185
G1 X87.110 Y111.387 E9.58556
G1 X86.887 Y111.159 E9.60148
G1 X85.764 Y109.653 E9.69520
G1 X85.566 Y109.390 E9.71162
G1 X84.642 Y107.748 E9.80562
G1 X84.483 Y107.464 E9.82186
G1 X83.655 Y105.422 E9.93179
G1 X83.178 Y103.603 E10.02561
G1 X83.096 Y103.295 E10.04151
G1 X82.856 Y101.422 E10.13572
G1 X82.814 Y101.110 E10.15143
G1 X82.814 Y98.899 E10.26173
G1 X83.054 Y97.025 E10.35599
G1 X83.098 Y96.702 E10.37226
G1 X83.573 Y94.886 E10.46590
G1 X83.658 Y94.570 E10.48223
G1 X84.483 Y92.533 E10.59188
G1 X85.404 Y90.899 E10.68545
G1 X85.403 Y90.899 E10.68550
G1 X85.563 Y90.614 E10.70181
G1 X86.690 Y89.103 E10.79585
G1 X86.886 Y88.843 E10.81210
G1 X88.195 Y87.491 E10.90598
G1 F2400 E6.90598
G0 F9000 X90.918 Y90.141
;TYPE:WALL-INNER
G1 F2400 E10.90598
G1 F1800 X90.975 Y90.083 E10.91004
G1 X92.319 Y89.010 E10.99584
G1 X93.716 Y88.163 E11.07735
G1 X93.783 Y88.123 E11.08124
G1 X95.283 Y87.458 E11.16310
G1 X95.357 Y87.425 E11.16714
G1 X97.005 Y86.937 E11.25289
G1 X98.620 Y86.676 E11.33451
G1 X98.700 Y86.663 E11.33855
G1 X100.419 Y86.608 E11.42436
G1 X102.040 Y86.764 E11.50560
G1 X102.124 Y86.772 E11.50981
G1 X103.717 Y87.136 E11.59134
G1 X103.801 Y87.155 E11.59563
G1 X105.332 Y87.719 E11.67703
G1 X106.858 Y88.503 E11.76263
G1 X108.340 Y89.524 E11.85241
G1 X109.607 Y90.675 E11.93781
G1 X110.669 Y91.922 E12.01953
G1 X110.724 Y91.987 E12.02378
G1 X111.659 Y93.422 E12.10922
G1 X112.407 Y94.976 E12.19527
G1 X112.944 Y96.596 E12.28041
G1 X113.273 Y98.285 E12.36626
G1 X113.378 Y99.919 E12.44795
G1 X113.383 Y100.002 E12.45210
G1 X113.279 Y101.630 E12.53349
G1 X113.273 Y101.714 E12.53769
G1 X112.944 Y103.403 E12.62354
G1 X112.407 Y105.023 E12.70868
G1 X111.659 Y106.577 E12.79473
G1 X110.724 Y108.012 E12.88017
G1 X109.663 Y109.258 E12.96182
G1 X108.340 Y110.475 E13.05150
G1 X106.932 Y111.458 E13.13718
G1 X105.481 Y112.213 E13.21878
G1 X103.874 Y112.816 E13.30441
G1 X103.798 Y112.845 E13.30847
G1 X102.203 Y113.208 E13.39008
G1 X102.119 Y113.227 E13.39438
G1 X100.495 Y113.383 E13.47577
G1 X100.416 Y113.391 E13.47973
G1 X98.694 Y113.336 E13.56569
G1 X97.088 Y113.076 E13.64685
G1 X97.003 Y113.062 E13.65115
G1 X95.361 Y112.575 E13.73660
G1 X93.863 Y111.912 E13.81833
G1 X93.789 Y111.880 E13.82235
G1 X92.388 Y111.030 E13.90410
G1 X92.318 Y110.988 E13.90818
G1 X90.976 Y109.917 E13.99384
G1 X89.839 Y108.743 E14.07537
G1 X88.804 Y107.374 E14.16100
G1 X88.756 Y107.310 E14.16499
G1 X87.913 Y105.812 E14.25074
G1 X87.268 Y104.220 E14.33644
G1 X86.854 Y102.639 E14.41798
G1 X86.625 Y100.937 E14.50365
G1 X86.614 Y99.140 E14.59331
G1 X86.821 Y97.522 E14.67469
G1 X87.246 Y95.859 E14.76032
G1 X87.270 Y95.775 E14.76468
G1 X87.913 Y94.187 E14.85016
G1 X88.755 Y92.691 E14.93580
G1 X89.733 Y91.380 E15.01740
G1 X89.784 Y91.312 E15.02164
G1 X90.918 Y90.141 E15.10297
G0 F9000 X95.291 Y95.500
G1 F1800 X94.598 Y96.359 E15.15803
G1 X94.060 Y97.321 E15.21302
G1 X93.692 Y98.361 E15.26806
G1 X93.506 Y99.448 E15.32308
G1 X93.506 Y100.551 E15.37811
G1 X93.692 Y101.638 E15.43313
G1 X94.060 Y102.678 E15.48816
G1 X94.598 Y103.640 E15.54315
G1 X95.291 Y104.499 E15.59822
G1 X96.119 Y105.227 E15.65322
G1 X97.058 Y105.806 E15.70826
G1 X98.081 Y106.217 E15.76326
G1 X99.160 Y106.449 E15.81832
G1 X100.262 Y106.496 E15.87335
G1 X101.355 Y106.356 E15.92833
G1 X102.409 Y106.033 E15.98333
G1 X103.395 Y105.537 E16.03839
G1 X104.281 Y104.880 E16.09342
G1 X105.044 Y104.084 E16.14843
G1 X105.662 Y103.171 E16.20344
G1 X106.116 Y102.166 E16.25845
G1 X106.393 Y101.099 E16.31345
G1 X106.487 Y100.000 E16.36848
G1 X106.394 Y98.900 E16.42356
G1 X106.116 Y97.833 E16.47857
G1 X105.662 Y96.828 E16.53358
G1 X105.044 Y95.915 E16.58859
G1 X104.281 Y95.119 E16.64360
G1 X103.395 Y94.462 E16.69863
G1 X102.409 Y93.966 E16.75369
G1 X101.355 Y93.643 E16.80869
G1 X100.262 Y93.503 E16.86367
G1 X99.160 Y93.550 E16.91870
G1 X98.081 Y93.782 E16.97376
G1 X97.058 Y94.193 E17.02876
G1 X96.119 Y94.772 E17.08380
G1 X95.291 Y95.500 E17.13880
G0 F9000 X91.237 Y98.585
G1 F1800 X90.973 Y98.309 E17.15786
G1 X90.665 Y98.082 E17.17695
G1 X90.325 Y97.910 E17.19596
G1 X89.961 Y97.799 E17.21494
G1 X89.581 Y97.749 E17.23406
G1 X89.198 Y97.766 E17.25319
G1 X88.825 Y97.847 E17.27223
G1 X88.472 Y97.989 E17.29121
G1 X88.146 Y98.189 E17.31030
G1 X87.859 Y98.441 E17.32935
G1 X87.619 Y98.739 E17.34844
G1 X87.433 Y99.072 E17.36747
G1 X87.306 Y99.433 E17.38656
G1 X87.243 Y99.806 E17.40543
G1 X87.241 Y99.949 E17.41257
G1 X87.242 Y100.191 E17.42464
G1 X87.306 Y100.566 E17.44362
G1 X87.433 Y100.927 E17.46271
G1 X87.619 Y101.260 E17.48174
G1 X87.859 Y101.558 E17.50083
G1 X88.146 Y101.810 E17.51989
G1 X88.472 Y102.010 E17.53897
G1 X88.825 Y102.152 E17.55795
G1 X89.198 Y102.233 E17.57699
G1 X89.581 Y102.250 E17.59612
G1 X89.961 Y102.200 E17.61524
G1 X90.325 Y102.089 E17.63423
G1 X90.665 Y101.917 E17.65324
G1 X90.973 Y101.690 E17.67233
G1 X91.237 Y101.414 E17.69138
G1 X91.451 Y101.098 E17.71042
G1 X91.608 Y100.750 E17.72947
G1 X91.704 Y100.381 E17.74849
G1 X91.737 Y100.000 E17.76757
G1 X91.704 Y99.619 E17.78665
G1 X91.608 Y99.249 E17.80572
G1 X91.451 Y98.901 E17.82477
G1 X91.237 Y98.585 E17.84381
G0 F9000 X97.058 Y94.195
G0 X99.160 Y93.551
G0 X103.183 Y91.832
G1 F1800 X103.369 Y92.167 E17.86292
G1 X103.609 Y92.463 E17.88194
G1 X103.895 Y92.717 E17.90102
G1 X104.222 Y92.917 E17.92014
G1 X104.576 Y93.059 E17.93917
G1 X104.948 Y93.139 E17.95816
G1 X105.330 Y93.157 E17.97723
G1 X105.711 Y93.107 E17.99641
G1 X106.075 Y92.996 E18.01539
G1 X106.415 Y92.824 E18.03440
G1 X106.724 Y92.597 E18.05353
G1 X106.987 Y92.319 E18.07262
G1 X107.201 Y92.004 E18.09162
G1 X107.358 Y91.657 E18.11062
G1 X107.454 Y91.287 E18.12969
G1 X107.487 Y90.906 E18.14877
G1 X107.454 Y90.525 E18.16785
G1 X107.358 Y90.156 E18.18687
G1 X107.201 Y89.808 E18.20592
G1 X106.987 Y89.492 E18.22496
G1 X106.723 Y89.216 E18.24402
G1 X106.415 Y88.989 E18.26310
G1 X106.075 Y88.817 E18.28211
G1 X105.711 Y88.706 E18.30110
G1 X105.331 Y88.656 E18.32022
G1 X104.949 Y88.673 E18.33930
G1 X104.576 Y88.753 E18.35833
G1 X104.221 Y88.895 E18.37741
G1 X103.886 Y89.102 E18.39705
G1 X103.543 Y89.428 E18.42066
G1 X103.368 Y89.646 E18.43461
G1 X103.183 Y89.980 E18.45366
G1 X103.056 Y90.340 E18.47270
G1 X102.993 Y90.713 E18.49157
G1 X102.991 Y90.855 E18.49866
G1 X102.992 Y91.098 E18.51078
G1 X103.056 Y91.472 E18.52971
G1 X103.183 Y91.832 E18.54876
G0 F9000 X106.393 Y98.901
G0 X106.115 Y102.165
G0 X104.948 Y106.860
G1 F1800 X104.576 Y106.940 E18.56774
G1 X104.222 Y107.082 E18.58677
G1 X103.895 Y107.282 E18.60589
G1 X103.609 Y107.536 E18.62498
G1 X103.369 Y107.832 E18.64399
G1 X103.183 Y108.167 E18.66311
G1 X103.056 Y108.527 E18.68215
G1 X102.993 Y108.899 E18.70098
G1 X102.991 Y109.042 E18.70811
G1 X102.992 Y109.284 E18.72018
G1 X103.056 Y109.659 E18.73916
G1 X103.183 Y110.019 E18.75821
G1 X103.369 Y110.354 E18.77732
G1 X103.610 Y110.651 E18.79641
G1 X103.895 Y110.903 E18.81539
G1 X104.221 Y111.104 E18.83449
G1 X104.576 Y111.246 E18.85357
G1 X104.949 Y111.326 E18.87260
G1 X105.331 Y111.343 E18.89168
G1 X105.711 Y111.293 E18.91080
G1 X106.075 Y111.182 E18.92979
G1 X106.415 Y111.010 E18.94880
G1 X106.723 Y110.783 E18.96788
G1 X106.987 Y110.507 E18.98694
G1 X107.201 Y110.191 E19.00598
G1 X107.358 Y109.843 E19.02503
G1 X107.454 Y109.474 E19.04405
G1 X107.487 Y109.093 E19.06313
G1 X107.454 Y108.712 E19.08221
G1 X107.358 Y108.342 E19.10128
G1 X107.201 Y107.995 E19.12028
G1 X106.987 Y107.680 E19.13928
G1 X106.724 Y107.402 E19.15837
G1 X106.415 Y107.175 E19.17750
G1 X106.075 Y107.003 E19.19651
G1 X105.711 Y106.892 E19.21549
G1 X105.330 Y106.842 E19.23467
G1 X104.948 Y106.860 E19.25374
G0 F9000 X105.000 Y107.258
;TYPE:WALL-OUTER
G1 F1800 X104.693 Y107.324 E19.26941
G1 X104.402 Y107.441 E19.28506
G1 X104.134 Y107.605 E19.30073
G1 X103.899 Y107.813 E19.31639
G1 X103.702 Y108.057 E19.33204
G1 X103.549 Y108.332 E19.34774
G1 X103.445 Y108.628 E19.36339
G1 X103.392 Y108.935 E19.37893
G1 X103.391 Y109.043 E19.38432
G1 X103.392 Y109.249 E19.39460
G1 X103.445 Y109.558 E19.41024
G1 X103.549 Y109.854 E19.42589
G1 X103.702 Y110.129 E19.44159
G1 X103.899 Y110.373 E19.45724
G1 X104.134 Y110.580 E19.47286
G1 X104.402 Y110.745 E19.48856
G1 X104.693 Y110.862 E19.50421
G1 X105.000 Y110.928 E19.51988
G1 X105.314 Y110.942 E19.53556
G1 X105.626 Y110.901 E19.55126
G1 X105.925 Y110.809 E19.56686
G1 X106.205 Y110.668 E19.58251
G1 X106.458 Y110.482 E19.59817
G1 X106.674 Y110.255 E19.61380
G1 X106.850 Y109.995 E19.62947
G1 X106.979 Y109.709 E19.64512
G1 X107.059 Y109.405 E19.66080
G1 X107.086 Y109.093 E19.67643
G1 X107.059 Y108.780 E19.69210
G1 X106.979 Y108.476 E19.70778
G1 X106.850 Y108.191 E19.72339
G1 X106.674 Y107.931 E19.73906
G1 X106.458 Y107.703 E19.75473
G1 X106.205 Y107.517 E19.77039
G1 X105.925 Y107.376 E19.78603
G1 X105.626 Y107.284 E19.80164
G1 X105.313 Y107.243 E19.81739
G1 X105.000 Y107.258 E19.83302
G0 F9000 X104.987 Y106.958
G0 X103.361 Y105.437
G0 X103.184 Y105.195
G1 F1800 X104.016 Y104.579 E19.88467
G1 X104.732 Y103.832 E19.93629
G1 X105.311 Y102.975 E19.98789
G1 X105.737 Y102.032 E20.03952
G1 X105.998 Y101.031 E20.09113
G1 X106.086 Y100.000 E20.14275
G1 X105.998 Y98.968 E20.19442
G1 X105.737 Y97.967 E20.24603
G1 X105.311 Y97.024 E20.29766
G1 X104.732 Y96.167 E20.34926
G1 X104.016 Y95.420 E20.40088
G1 X103.184 Y94.804 E20.45253
G1 X102.260 Y94.339 E20.50413
G1 X101.270 Y94.036 E20.55579
G1 X100.245 Y93.904 E20.60735
G1 X99.211 Y93.948 E20.65898
G1 X98.198 Y94.166 E20.71067
G1 X97.239 Y94.552 E20.76225
G1 X96.358 Y95.095 E20.81388
G1 X95.581 Y95.778 E20.86549
G1 X94.931 Y96.584 E20.91715
G1 X94.426 Y97.486 E20.96873
G1 X94.081 Y98.462 E21.02037
G1 X93.906 Y99.482 E21.07200
G1 X93.906 Y100.517 E21.12364
G1 X94.081 Y101.537 E21.17527
G1 X94.426 Y102.513 E21.22692
G1 X94.931 Y103.415 E21.27849
G1 X95.581 Y104.221 E21.33015
G1 X96.358 Y104.904 E21.38176
G1 X97.239 Y105.447 E21.43339
G1 X98.198 Y105.833 E21.48497
G1 X99.211 Y106.051 E21.53666
G1 X100.245 Y106.095 E21.58829
G1 X101.270 Y105.963 E21.63985
G1 X102.260 Y105.660 E21.69151
G1 X103.184 Y105.195 E21.74311
G0 F9000 X103.361 Y105.437
G0 X106.986 Y107.680
G0 X107.454 Y109.472
G0 X106.983 Y111.544
G0 X107.138 Y111.802
G1 F1800 X105.577 Y112.615 E21.83092
G1 X103.909 Y113.230 E21.91962
G1 X102.188 Y113.622 E22.00768
G1 X100.429 Y113.792 E22.09584
G1 X98.656 Y113.735 E22.18434
G1 X97.022 Y113.471 E22.26692
G1 X96.919 Y113.454 E22.27213
G1 X95.218 Y112.949 E22.36065
G1 X93.603 Y112.234 E22.44877
G1 X92.088 Y111.317 E22.53712
G1 X90.709 Y110.216 E22.62516
G1 X89.477 Y108.944 E22.71350
G1 X88.419 Y107.526 E22.80177
G1 X87.552 Y105.987 E22.88990
G1 X86.888 Y104.348 E22.97812
G1 X86.467 Y102.741 E23.06100
G1 X86.439 Y102.635 E23.06647
G1 X86.228 Y100.989 E23.14926
G1 X86.214 Y99.112 E23.24291
G1 X86.425 Y97.469 E23.32555
G1 X86.440 Y97.360 E23.33104
G1 X86.860 Y95.756 E23.41376
G1 X86.888 Y95.650 E23.41923
G1 X87.552 Y94.012 E23.50741
G1 X88.419 Y92.473 E23.59554
G1 X89.477 Y91.055 E23.68380
